assets/warrantyIcon.svg

<svg width="81" height="81" viewBox="0 0 81 81" fill="none" xmlns="http://www.w3.org/2000/svg">
<path d="M81 59.8135H0V1.27832H81V59.8135Z" fill="#FFC856"/>
<path d="M81 1.27832H40.5V59.8135H81V1.27832Z" fill="#FFC03F"/>
<path d="M64.2305 51.1123H16.7695V48.7393C16.7695 46.5584 14.9953 44.7842 12.8145 44.7842H10.4414V17.8896H12.8145C14.9953 17.8896 16.7695 16.1154 16.7695 13.9346V11.5615H64.2305V13.9346C64.2305 16.1154 66.0047 17.8896 68.1855 17.8896H70.5586V44.7842H68.1855C66.0047 44.7842 64.2305 46.5584 64.2305 48.7393V51.1123ZM21.1867 46.3662H59.8131C60.6344 43.4725 62.9186 41.1882 65.8123 40.367V22.3068C62.9186 21.4858 60.6344 19.2013 59.8131 16.3076H21.1867C20.3655 19.2013 18.0812 21.4856 15.1875 22.3068V40.367C18.0812 41.1881 20.3655 43.4725 21.1867 46.3662Z" fill="#FF9A00"/>
<path d="M46.7617 28.2215C43.3091 24.8876 37.691 24.8876 34.2384 28.2215L30.9414 24.8075C36.2121 19.7178 44.7878 19.7178 50.0587 24.8075L46.7617 28.2215Z" fill="#FFF5CC"/>
<path d="M37.1777 32.1279H20.25V36.874H37.1777V32.1279Z" fill="#FFF5CC"/>
<path d="M64.2305 13.9346V11.5615H40.5V16.3076H59.8133C60.6345 19.2013 62.9188 21.4856 65.8125 22.3068V40.367C62.9188 41.1881 60.6345 43.4725 59.8133 46.3662H40.5V51.1123H64.2305V48.7393C64.2305 46.5584 66.0047 44.7842 68.1855 44.7842H70.5586V17.8896H68.1855C66.0047 17.8896 64.2305 16.1154 64.2305 13.9346Z" fill="#E67500"/>
<path d="M46.7617 28.2215L50.0586 24.8075C47.4233 22.2627 43.9616 20.9902 40.5 20.9902V25.721C42.7677 25.7211 45.0354 26.5546 46.7617 28.2215Z" fill="#FFDAAA"/>
<path d="M33.6765 79.7211L29.6812 72.5298L22.4897 68.5346L39.8163 51.208L51.003 62.3946L33.6765 79.7211Z" fill="#FF513F"/>
<path d="M66.9408 79.7219L49.6143 62.3955L60.801 51.209L78.1275 68.5356L70.9361 72.5308L66.9408 79.7219Z" fill="#BF1200"/>
<path d="M50.3086 63.7686C42.0214 63.7686 35.2793 57.0264 35.2793 48.7393C35.2793 40.4521 42.0214 33.71 50.3086 33.71C58.5957 33.71 65.3379 40.4521 65.3379 48.7393C65.3379 57.0264 58.5957 63.7686 50.3086 63.7686Z" fill="#FFD2CD"/>
<path d="M50.3086 33.71V63.7686C58.5957 63.7686 65.3379 57.0264 65.3379 48.7393C65.3379 40.4521 58.5957 33.71 50.3086 33.71Z" fill="#FFB2AA"/>
<path d="M50.3086 55.8584C46.3831 55.8584 43.1895 52.6648 43.1895 48.7393C43.1895 44.8138 46.3831 41.6201 50.3086 41.6201C54.2341 41.6201 57.4277 44.8138 57.4277 48.7393C57.4277 52.6648 54.2341 55.8584 50.3086 55.8584ZM50.3086 46.3662C49.0001 46.3662 47.9355 47.4308 47.9355 48.7393C47.9355 50.0478 49.0001 51.1123 50.3086 51.1123C51.6171 51.1123 52.6816 50.0478 52.6816 48.7393C52.6816 47.4308 51.6171 46.3662 50.3086 46.3662Z" fill="#FF513F"/>
<path d="M52.6816 48.7393C52.6816 50.0478 51.6171 51.1123 50.3086 51.1123V55.8584C54.2341 55.8584 57.4277 52.6648 57.4277 48.7393C57.4277 44.8138 54.2341 41.6201 50.3086 41.6201V46.3662C51.6171 46.3662 52.6816 47.4306 52.6816 48.7393Z" fill="#BF1200"/>
</svg>

<svg xmlns="http://www.w3.org/2000/svg" width="81" height="81" fill="none" xmlns:v="https://vecta.io/nano"><path d="M81 59.814H0V1.278h81v58.535z" fill="#ffc856"/><path d="M81 1.278H40.5v58.535H81V1.278z" fill="#ffc03f"/><path d="M64.23 51.112H16.77V48.74a3.96 3.96 0 0 0-3.955-3.955H10.44V17.9h2.373a3.96 3.96 0 0 0 3.955-3.955v-2.373h47.46v2.373a3.96 3.96 0 0 0 3.955 3.955h2.373v26.895h-2.373a3.96 3.96 0 0 0-3.955 3.955v2.373zm-43.044-4.746h38.626c.82-2.894 3.105-5.178 6-6v-18.06c-2.894-.82-5.178-3.105-6-6H21.187c-.82 2.894-3.105 5.178-6 6v18.06c2.894.82 5.178 3.105 6 6z" fill="#ff9a00"/><path d="M46.762 28.222c-3.453-3.334-9.07-3.334-12.523 0l-3.297-3.414c5.27-5.1 13.846-5.1 19.117 0l-3.297 3.414zm-9.584 3.906H20.25v4.746h16.928v-4.746z" fill="#fff5cc"/><path d="M64.23 13.935v-2.373H40.5v4.746h19.313c.82 2.894 3.105 5.178 6 6v18.06c-2.894.82-5.178 3.105-6 6H40.5v4.746h23.73V48.74a3.96 3.96 0 0 1 3.955-3.955h2.373V17.9h-2.373a3.96 3.96 0 0 1-3.955-3.955z" fill="#e67500"/><path d="M46.762 28.222l3.297-3.414C47.423 22.263 43.962 21 40.5 21v4.73c2.268 0 4.535.834 6.262 2.5z" fill="#ffdaaa"/><path d="M33.677 79.72l-3.995-7.19-7.192-3.995 17.327-17.327 11.187 11.187L33.677 79.72z" fill="#ff513f"/><path d="M66.94 79.722L49.614 62.396 60.8 51.21l17.326 17.327-7.19 3.995-3.995 7.19z" fill="#bf1200"/><path d="M50.31 63.77a15.05 15.05 0 0 1-15.029-15.029A15.05 15.05 0 0 1 50.309 33.71a15.05 15.05 0 0 1 15.029 15.029 15.05 15.05 0 0 1-15.029 15.029z" fill="#ffd2cd"/><path d="M50.31 33.7v30.06a15.05 15.05 0 0 0 15.029-15.029A15.05 15.05 0 0 0 50.309 33.71z" fill="#ffb2aa"/><path d="M50.31 55.858a7.13 7.13 0 0 1-7.119-7.119 7.13 7.13 0 0 1 7.119-7.119 7.13 7.13 0 0 1 7.119 7.119 7.13 7.13 0 0 1-7.119 7.119zm0-9.492c-1.308 0-2.373 1.065-2.373 2.373S49 51.112 50.31 51.112s2.373-1.064 2.373-2.373-1.065-2.373-2.373-2.373z" fill="#ff513f"/><path d="M52.682 48.74c0 1.31-1.065 2.373-2.373 2.373v4.746a7.13 7.13 0 0 0 7.119-7.119 7.13 7.13 0 0 0-7.119-7.119v4.746c1.31 0 2.373 1.064 2.373 2.373z" fill="#bf1200"/></svg>
